X:0320
T:Quick Step 13th. Regt.
M:2/4
L:1/8
Q:1/4=88
I: :| ::
Z:Jack Campin * www.campin.me.uk * 2009
K:G
GB Bc/B/|BdBG|GB Bc/B/|Bdgd |\
GB Bc/B/|BdBG|ecBA    |G2G2:|
Bddg    |dgdc|Bd df/g/|aAAc |\
Bddg    |dgdB|e(cTBA) |G2G2:|

